src/assets/filled/FolderCloud.svg

<svg width="24" height="24" viewBox="0 0 24 24"  xmlns="http://www.w3.org/2000/svg">
<path d="M15.5801 19.7C13.4701 19.85 13.4701 22.91 15.5801 23.06H20.5901C21.2001 23.06 21.7801 22.84 22.2301 22.43C23.7101 21.14 22.9201 18.54 20.9701 18.3C20.2701 14.08 14.1601 15.68 15.6101 19.7" />
<path d="M15.5801 19.7C13.4701 19.85 13.4701 22.91 15.5801 23.06H20.5901C21.2001 23.06 21.7801 22.84 22.2301 22.43C23.7101 21.14 22.9201 18.54 20.9701 18.3C20.2701 14.08 14.1601 15.68 15.6101 19.7" />
<path d="M22 11.07V15.34C22 15.66 21.49 15.8 21.27 15.57C20.8 15.08 20.21 14.71 19.53 14.5C17.96 14.01 16.15 14.49 15.01 15.67C14.29 16.44 13.9 17.4 13.88 18.44C13.88 18.62 13.79 18.78 13.65 18.89C12.93 19.46 12.49 20.35 12.49 21.37V21.38C12.49 21.7 12.26 21.99 11.94 21.99H7.34C4.4 22 2 19.6 2 16.65V6.42C2 3.98 3.98 2 6.42 2H8.74C10.37 2 10.88 2.53 11.53 3.4L12.93 5.26C13.24 5.67 13.28 5.72 13.86 5.72H16.65C19.03 5.72 21.05 7.28 21.74 9.44C21.89 9.89 21.97 10.35 21.99 10.84C22 10.91 22 11 22 11.07Z" />
</svg>

<?xml version="1.0" encoding="UTF-8"?>
<svg width="24" height="24" viewBox="0 0 24 24" xmlns="http://www.w3.org/2000/svg">
 <path d="m15.58 19.7c-2.11 0.15-2.11 3.21 0 3.36h5.01c0.61 0 1.19-0.22 1.64-0.63 1.48-1.29 0.69-3.89-1.26-4.13-0.7-4.22-6.81-2.62-5.36 1.4"/>
 <path d="m15.58 19.7c-2.11 0.15-2.11 3.21 0 3.36h5.01c0.61 0 1.19-0.22 1.64-0.63 1.48-1.29 0.69-3.89-1.26-4.13-0.7-4.22-6.81-2.62-5.36 1.4"/>
 <path d="m22 11.07v4.27c0 0.32-0.51 0.46-0.73 0.23-0.47-0.49-1.06-0.86-1.74-1.07-1.57-0.49-3.38-0.01-4.52 1.17-0.72 0.77-1.11 1.73-1.13 2.77 0 0.18-0.09 0.34-0.23 0.45-0.72 0.57-1.16 1.46-1.16 2.48v0.01c0 0.32-0.23 0.61-0.55 0.61h-4.6c-2.94 0.01-5.34-2.39-5.34-5.34v-10.23c0-2.44 1.98-4.42 4.42-4.42h2.32c1.63 0 2.14 0.53 2.79 1.4l1.4 1.86c0.31 0.41 0.35 0.46 0.93 0.46h2.79c2.38 0 4.4 1.56 5.09 3.72 0.15 0.45 0.23 0.91 0.25 1.4 0.01 0.07 0.01 0.16 0.01 0.23z"/>
</svg>
